X:10608
T:McFadden's Handsome Daughter
R:reel
H:Version 4 is Cathal Hayden's "inside out" version.
H:Versions 2 and 3 are somewhere in between.
D:Molloy, Peoples, Brady
D:Music at Matt Molloy's
D:Four Men and a Dog: Barking Mad
Z:id:hn-reel-334
M:C|
K:A
~E3F ABcA|~A2cA BFAF|~E3F ABcA|1 BF~F2 BFAF:|2 BAFB A3F||
~A2ce fecf|e2cA BFAF|A2ce fecf|ecBc A3F|
A2ce faaf|e2cA BFAF|~A3e faec|~B3F ABcd||
~e3f ecac|ecac fB~B2|ce~e2 ceaf|ecBe cA~A2|
ce~e2 ceae|ceae fB~B2|cefg ~a3f|e2ce aecA||
